assets/icons/folder/drag-accept-filled.svg

<?xml version="1.0" encoding="UTF-8" standalone="no"?>
<svg
   viewBox="0 0 24 24"
   height="24"
   width="24"
   version="1.1"
   id="svg4"
   sodipodi:docname="drag-accept-filled.svg"
   inkscape:version="1.2 (1:1.2.1+202207142221+cd75a1ee6d)"
   xmlns:inkscape="http://www.inkscape.org/namespaces/inkscape"
   xmlns:sodipodi="http://sodipodi.sourceforge.net/DTD/sodipodi-0.dtd"
   xmlns="http://www.w3.org/2000/svg"
   xmlns:svg="http://www.w3.org/2000/svg">
  <defs
     id="defs8" />
  <sodipodi:namedview
     id="namedview6"
     pagecolor="#ffffff"
     bordercolor="#666666"
     borderopacity="1.0"
     inkscape:pageshadow="2"
     inkscape:pageopacity="0.0"
     inkscape:pagecheckerboard="0"
     showgrid="true"
     inkscape:zoom="6.999347"
     inkscape:cx="-29.431317"
     inkscape:cy="2.5716685"
     inkscape:window-width="1920"
     inkscape:window-height="1043"
     inkscape:window-x="0"
     inkscape:window-y="0"
     inkscape:window-maximized="1"
     inkscape:current-layer="svg4"
     inkscape:showpageshadow="2"
     inkscape:deskcolor="#d1d1d1">
    <inkscape:grid
       type="xygrid"
       id="grid821" />
    <inkscape:grid
       type="xygrid"
       id="grid823"
       dotted="true"
       spacingx="0.5"
       spacingy="0.5"
       empspacing="10" />
  </sodipodi:namedview>
  <path
     id="path641"
     style="color:#000000;fill:#808080"
     d="M 5.5 3 C 4.2166731 3 3.3148401 3.1031286 2.7089844 3.7089844 C 2.1031286 4.3148401 2 5.2166731 2 6.5 L 2 12.892578 C 2.1634827 12.761313 2.3396793 12.646567 2.5273438 12.552734 C 3.3965989 12.118107 4.4583354 12 5.5 12 L 10.5 12 L 13.5 12 L 18.5 12 C 19.541665 12 20.603401 12.118107 21.472656 12.552734 C 21.660321 12.646567 21.836517 12.761314 22 12.892578 L 22 9.5 C 22 8.2166732 21.89687 7.3148406 21.291016 6.7089844 C 20.685157 6.1031286 19.783328 6 18.5 6 L 13.707031 6 L 10.707031 3 L 5.5 3 z M 5.5 13 C 4.5416686 13 3.603398 13.131894 2.9726562 13.447266 C 2.3419144 13.762636 2 14.166668 2 15 L 2 17.5 C 2 18.783328 2.1031286 19.685157 2.7089844 20.291016 C 3.3148401 20.89687 4.2166731 21 5.5 21 L 18.5 21 C 19.783328 21 20.685157 20.89687 21.291016 20.291016 C 21.89687 19.685157 22 18.783328 22 17.5 L 22 15 C 22 14.166668 21.658085 13.762636 21.027344 13.447266 C 20.396601 13.131894 19.458331 13 18.5 13 L 13.5 13 L 10.5 13 L 5.5 13 z " />
</svg>

<svg height="24" width="24" xmlns="http://www.w3.org/2000/svg"><path style="color:#000;fill:gray" d="M5.5 3c-1.283 0-2.185.103-2.791.709C2.103 4.315 2 5.217 2 6.5v6.393c.163-.132.34-.246.527-.34C3.397 12.118 4.458 12 5.5 12h13c1.042 0 2.103.118 2.973.553.187.094.364.208.527.34V9.5c0-1.283-.103-2.185-.709-2.791C20.685 6.103 19.783 6 18.5 6h-4.793l-3-3H5.5zm0 10c-.958 0-1.897.132-2.527.447C2.342 13.763 2 14.167 2 15v2.5c0 1.283.103 2.185.709 2.791.606.606 1.508.709 2.791.709h13c1.283 0 2.185-.103 2.791-.709.606-.606.709-1.508.709-2.791V15c0-.833-.342-1.237-.973-1.553-.63-.315-1.569-.447-2.527-.447h-13z"/></svg>
